X:1
T:Lake Buena Vista, 12.11.12.11 D
T:Lake Buena Vista, 12.11.12.11 D
T:Melvin Joyner Hill, 1907
T:Public Domain Courtesy of the Cyber Hymnal™
T:Public Domain Courtesy of the Cyber Hymnal™
C:Melvin Joyner Hill, 1907
Z:Public Domain
Z:Courtesy of the Cyber Hymnal™
%%score ( 1 2 ) ( 3 4 ) ( 5 6 )
L:1/8
Q:1/4=95
M:4/4
K:C
V:1 treble 
V:2 treble 
V:3 treble 
V:4 treble 
V:5 bass 
V:6 bass 
V:1
 [CE][DF] | [EG][Ec][EB][EA] [EG]CB,C | [CE]2 [CE]4 [CE][DF] | [EG][Ec][EB][EA] [EG][CE][B,D][CE] | %4
 F6 ([B,D]2 [B,D]2) [B,D][CE] | [DF][^CE][DF][EG] [GB][FA][FA][CE] | [EA]2 [EG]4 ^FE | %7
 DE^FG [Fc][DF]BA | G6 x2 | EF x6 | GGGA GGAA x2 | B2 B4 BA | GGGA GGcd | e6 EF | GGGA GGAA | %15
 B2 B4 BA | GGGG AGBB | c6 |] %18
V:2
 x2 | x8 | x8 | x8 | [B,D]2 x10 | x8 | x6 C2 | C4 x [D^F]2 x | (D2 E2 F2) x2 | x8 | x10 | x8 | x8 | %13
 x8 | x8 | x8 | x8 | x6 |] %18
V:3
 z2 | z8 | z8 | z8 | z8 x4 | z8 | z8 | z8 | z6 EF | Ggec Ggec | f6 [Gf]2 AG | GfdB GGcd | e6 EF | %13
 Ggec Ggec | f6 BA | GfdB AG [Ge][Fd] | c6 x2 | x6 |] %18
V:4
 x2 | x8 | x8 | x8 | x12 | x8 | x8 | x8 | x8 | x8 | GdBA x6 | x8 | (GcBA G2) x2 | x8 | %14
 (Gd) (BA G2) x2 | x8 | (E2 F2 E2) x2 | x6 |] %18
V:5
 z2 | C,2 [E,G,]2 G,,2 [E,G,]2 | C,2 [E,G,]2 G,,2 [E,G,]2 | C,2 [E,G,]2 G,,2 G,2 | %4
 (D,2 G,2 G,,2) G,2 x4 | G,,2 G,2 G,,2 G,2 | C,2 [E,G,]2 A,,2 A,2 | ^F,G, A,2 [D,A,]2 C2 | %8
 (B,2 C2 !fermata!D2) z2 | C,2 [G,CE]2 C,2 [G,CE]2 | [D,,D,]2 [G,B,D]2 G,,2 [G,B,D]2 x2 | %11
 G,,2 [G,B,D]2 G,,2 [G,B,F]2 | (C,2 [G,CE]2 G,,2) [G,CE]2 | C,2 [G,CE]2 C,2 [G,CE]2 | %14
 [D,,D,]2 [G,B,D]2 G,,2 [G,B,D]2 | G,,2 [G,B,D]2 G,,2 [F,G,B,]2 | z G,A,_A, x4 | x6 |] %18
V:6
 x2 | x8 | x8 | x6 F,E, | x12 | x8 | x8 | D,2 x6 | G,6 x2 | x8 | x10 | x8 | x8 | x8 | x8 | x8 | %16
 C,6 G,2 | x6 |] %18

